dapps/SimpleSwap.svg

<svg width="28" height="33" viewBox="0 0 28 33" fill="none" xmlns="http://www.w3.org/2000/svg">
<path d="M5.86022 24.4001L5.78522 24.5701C5.48997 25.2721 5.33789 26.026 5.33789 26.7876C5.33789 27.5491 5.48997 28.303 5.78522 29.0051C6.08162 29.7097 6.51461 30.3486 7.05922 30.8851C7.60708 31.4243 8.25529 31.851 8.96722 32.1411C10.4095 32.7296 12.025 32.7296 13.4672 32.1411C14.1788 31.8509 14.8266 31.4242 15.3742 30.8851L26.1942 20.2241C26.7508 19.6775 27.193 19.0256 27.4952 18.3064C27.7974 17.5872 27.9534 16.8151 27.9542 16.0351C27.9542 14.6251 27.5112 13.2651 26.5432 12.1981C26.0652 11.9937 25.5376 11.9345 25.0262 12.0281C24.5692 12.1121 24.1502 12.3791 23.8012 12.6931L13.5222 23.0881C13.3322 23.2821 13.1122 23.4431 12.8742 23.5671C13.0002 23.4901 13.1242 23.4101 13.2472 23.3271L13.2152 23.3401L13.2452 23.3201C13.2352 23.3267 13.2252 23.3333 13.2152 23.3401C12.1439 24.0495 10.9285 24.5126 9.65673 24.6959C8.38492 24.8792 7.08829 24.7781 5.86022 24.4001V24.4001Z" fill="#104ADE"/>
<path d="M13.2147 23.34L13.2767 23.298C12.8816 23.4556 12.4537 23.5135 12.0309 23.4664C11.6081 23.4193 11.2034 23.2687 10.8527 23.028C10.5439 22.8139 10.2856 22.5351 10.0957 22.211C9.81071 21.7244 9.69557 21.1569 9.76834 20.5977C9.84111 20.0385 10.0977 19.5194 10.4977 19.122L13.9187 15.722L18.9157 10.798L18.9357 10.78C18.95 10.7678 18.9646 10.7562 18.9797 10.745L19.7317 10.003C20.1145 9.92855 20.5037 9.8927 20.8937 9.89595C21.7727 9.89595 22.5197 9.98095 23.2647 10.193C24.5579 10.4681 25.7182 11.1774 26.5527 12.203C26.0723 11.9946 25.5409 11.9333 25.0257 12.027C24.5677 12.112 24.1487 12.379 23.7997 12.693L13.5217 23.088C13.3307 23.282 13.1117 23.443 12.8727 23.567C12.9987 23.49 13.1227 23.41 13.2457 23.327L13.2147 23.34V23.34Z" fill="#0038C7"/>
<path d="M21.5079 3.56401C21.2327 2.91081 20.8306 2.31871 20.3249 1.82201C19.7378 1.24348 19.0431 0.785531 18.2799 0.474011C16.732 -0.158004 14.9979 -0.158004 13.4499 0.474011C12.6861 0.785348 11.9907 1.2433 11.4029 1.82201L2.49494 10.598C0.934009 12.1296 0.0378751 14.2135 -6.48657e-05 16.4C-0.0323951 18.5856 0.79626 20.6962 2.30694 22.276L2.39994 22.365L2.49594 22.463C2.58394 22.548 2.67594 22.628 2.77194 22.703C4.21528 23.9378 6.02442 24.6641 7.92094 24.77C9.81889 24.8783 11.7 24.3612 13.2759 23.298C12.8808 23.4557 12.4529 23.5136 12.0301 23.4665C11.6073 23.4194 11.2027 23.2688 10.8519 23.028C10.5432 22.814 10.2849 22.5352 10.0949 22.211C9.80998 21.7244 9.69484 21.1569 9.76761 20.5978C9.84038 20.0386 10.0969 19.5195 10.4969 19.122L13.9179 15.722L18.9149 10.798L18.9789 10.745L20.3239 9.41801C21.0849 8.67088 21.6049 7.71313 21.8169 6.66801C22.0272 5.62633 21.9192 4.54548 21.5069 3.56601V3.56401H21.5079Z" fill="#0F75FC"/>
</svg>

<svg width="145" height="33" fill="none" xmlns="http://www.w3.org/2000/svg"><path d="M5.86 24.4l-.075.17a5.72 5.72 0 000 4.435 5.79 5.79 0 001.274 1.88 5.885 5.885 0 001.908 1.256 5.955 5.955 0 004.5 0 5.885 5.885 0 001.907-1.256l10.82-10.661a5.88 5.88 0 001.76-4.189c0-1.41-.443-2.77-1.411-3.837a2.647 2.647 0 00-1.517-.17c-.457.084-.876.351-1.225.665L13.522 23.088c-.19.194-.41.355-.648.479.126-.077.25-.157.373-.24l-.032.013.03-.02a3.438 3.438 0 00-.03.02A8.69 8.69 0 015.86 24.4z" fill="#104ADE"/><path d="M13.215 23.34l.062-.042a2.588 2.588 0 01-2.424-.27 2.583 2.583 0 01-.757-.817 2.543 2.543 0 01.402-3.089l3.421-3.4 4.997-4.924.02-.018a.914.914 0 01.044-.035l.752-.742a5.835 5.835 0 011.162-.107c.879 0 1.626.085 2.371.297a5.793 5.793 0 013.288 2.01 2.648 2.648 0 00-1.527-.176c-.458.085-.877.352-1.226.666L13.522 23.088c-.191.194-.41.355-.649.479.126-.077.25-.157.373-.24l-.031.013z" fill="#0038C7"/><path d="M21.508 3.564a5.358 5.358 0 00-1.183-1.742A6.313 6.313 0 0018.28.474a6.389 6.389 0 00-4.83 0 6.315 6.315 0 00-2.047 1.348l-8.908 8.776A8.331 8.331 0 000 16.4a8.324 8.324 0 002.307 5.876l.093.089.096.098c.088.085.18.165.276.24a8.664 8.664 0 005.149 2.067 8.69 8.69 0 005.355-1.472 2.588 2.588 0 01-2.424-.27 2.583 2.583 0 01-.757-.817 2.543 2.543 0 01.402-3.089l3.421-3.4 4.997-4.924.064-.053 1.345-1.327a5.343 5.343 0 001.493-2.75 5.295 5.295 0 00-.31-3.102v-.002z" fill="#0F75FC"/><path d="M102.403 23.795c-.827 0-1.575-.142-2.244-.425-.657-.284-1.179-.692-1.564-1.224-.385-.533-.584-1.162-.595-1.887h2.55c.034.487.204.872.51 1.156.317.283.748.425 1.292.425.555 0 .992-.13 1.309-.391.317-.272.476-.624.476-1.054 0-.352-.108-.64-.323-.867a2.159 2.159 0 00-.816-.527 11.138 11.138 0 00-1.326-.442c-.771-.227-1.4-.448-1.887-.663a3.496 3.496 0 01-1.241-1.003c-.34-.454-.51-1.054-.51-1.802 0-.703.176-1.315.527-1.836.351-.522.844-.918 1.479-1.19.635-.284 1.36-.425 2.176-.425 1.224 0 2.216.3 2.975.9.771.59 1.196 1.417 1.275 2.483h-2.618a1.324 1.324 0 00-.527-1.003c-.317-.272-.742-.408-1.275-.408-.465 0-.839.119-1.122.357-.272.238-.408.583-.408 1.037 0 .317.102.583.306.799.215.204.476.374.782.51.317.124.759.272 1.326.442.771.226 1.4.453 1.887.68a3.39 3.39 0 011.258 1.02c.351.453.527 1.048.527 1.785 0 .634-.164 1.224-.493 1.768-.329.544-.81.98-1.445 1.309-.635.317-1.388.476-2.261.476zm19.318-9.537l-2.754 9.418H116.4l-1.717-6.58-1.717 6.58h-2.584l-2.771-9.418h2.414l1.666 7.174 1.802-7.174h2.516l1.768 7.157 1.666-7.157h2.278zm.676 4.675c0-.952.187-1.797.561-2.533.385-.737.901-1.304 1.547-1.7a4.161 4.161 0 012.193-.595c.703 0 1.315.141 1.836.425.533.283.958.64 1.275 1.07v-1.342h2.397v9.418h-2.397v-1.377c-.306.442-.731.81-1.275 1.105-.533.283-1.15.425-1.853.425a4.045 4.045 0 01-2.176-.612c-.646-.408-1.162-.98-1.547-1.717-.374-.748-.561-1.604-.561-2.567zm7.412.034c0-.578-.113-1.071-.34-1.48a2.33 2.33 0 00-.918-.951 2.406 2.406 0 00-1.241-.34c-.442 0-.85.107-1.224.323a2.47 2.47 0 00-.918.952c-.227.408-.34.895-.34 1.462 0 .566.113 1.065.34 1.496.238.419.544.742.918.969.385.226.793.34 1.224.34.442 0 .856-.108 1.241-.323a2.48 2.48 0 00.918-.952c.227-.42.34-.918.34-1.496zm7.102-3.349c.306-.431.725-.788 1.258-1.071.544-.295 1.161-.442 1.853-.442.804 0 1.53.198 2.176.595.657.396 1.173.963 1.547 1.7.385.725.578 1.57.578 2.533 0 .963-.193 1.819-.578 2.567-.374.736-.89 1.309-1.547 1.717a3.991 3.991 0 01-2.176.612c-.692 0-1.304-.142-1.836-.425a3.931 3.931 0 01-1.275-1.071v5.83h-2.38V14.259h2.38v1.36zm4.981 3.315c0-.567-.119-1.054-.357-1.462a2.33 2.33 0 00-.918-.952 2.41 2.41 0 00-1.224-.323c-.431 0-.839.113-1.224.34a2.47 2.47 0 00-.918.952c-.227.419-.34.912-.34 1.479 0 .566.113 1.06.34 1.479.238.419.544.742.918.969a2.47 2.47 0 001.224.323c.442 0 .85-.114 1.224-.34.385-.227.691-.55.918-.97.238-.419.357-.917.357-1.495zM42.27 23.795c-.827 0-1.575-.142-2.244-.425-.657-.284-1.179-.692-1.564-1.224-.385-.533-.584-1.162-.595-1.887h2.55c.034.487.204.872.51 1.156.318.283.748.425 1.292.425.556 0 .992-.13 1.31-.391.316-.272.475-.624.475-1.054 0-.352-.107-.64-.323-.867a2.161 2.161 0 00-.816-.527c-.317-.136-.76-.284-1.326-.442a15.88 15.88 0 01-1.887-.663 3.497 3.497 0 01-1.24-1.003c-.34-.454-.51-1.054-.51-1.802 0-.703.175-1.315.526-1.836.352-.522.845-.918 1.48-1.19.634-.284 1.36-.425 2.175-.425 1.224 0 2.216.3 2.975.9.77.59 1.196 1.417 1.275 2.483h-2.618a1.324 1.324 0 00-.527-1.003c-.317-.272-.742-.408-1.275-.408-.464 0-.838.119-1.122.357-.272.238-.408.583-.408 1.037 0 .317.102.583.306.799.215.204.476.374.782.51.318.124.76.272 1.326.442.77.226 1.4.453 1.887.68.488.226.907.566 1.258 1.02.352.453.527 1.048.527 1.785 0 .634-.164 1.224-.493 1.768-.328.544-.81.98-1.445 1.309-.634.317-1.388.476-2.26.476zm7.47-10.659c-.42 0-.771-.13-1.054-.391a1.363 1.363 0 01-.408-1.003c0-.397.136-.726.408-.986a1.463 1.463 0 011.054-.408c.419 0 .765.136 1.037.408.283.26.425.589.425.986 0 .396-.142.73-.425 1.003-.272.26-.618.39-1.037.39zm1.173 1.122v9.418h-2.38v-9.418h2.38zm14.047-.136c1.156 0 2.085.357 2.788 1.07.714.703 1.071 1.69 1.071 2.959v5.525h-2.38v-5.202c0-.737-.187-1.298-.561-1.683-.374-.397-.884-.595-1.53-.595s-1.162.198-1.547.595c-.374.385-.561.946-.561 1.683v5.202h-2.38v-5.202c0-.737-.187-1.298-.561-1.683-.374-.397-.884-.595-1.53-.595-.657 0-1.179.198-1.564.595-.374.385-.561.946-.561 1.683v5.202h-2.38v-9.418h2.38v1.139a3.183 3.183 0 011.173-.935 3.742 3.742 0 011.598-.34c.737 0 1.394.158 1.972.476a3.222 3.222 0 011.343 1.326c.306-.544.748-.98 1.326-1.31a3.846 3.846 0 011.904-.492zm8.497 1.496c.306-.431.726-.788 1.259-1.071.544-.295 1.161-.442 1.853-.442A4.075 4.075 0 0180.29 16.4c.386.725.579 1.57.579 2.533 0 .963-.193 1.819-.579 2.567-.373.736-.89 1.309-1.546 1.717a3.99 3.99 0 01-2.177.612c-.69 0-1.303-.142-1.835-.425a3.949 3.949 0 01-1.276-1.071v5.83h-2.38V14.259h2.38v1.36zm4.982 3.315c0-.567-.12-1.054-.357-1.462a2.326 2.326 0 00-.918-.952 2.41 2.41 0 00-1.225-.323c-.43 0-.838.113-1.223.34a2.47 2.47 0 00-.918.952c-.227.419-.34.912-.34 1.479 0 .566.113 1.06.34 1.479a2.6 2.6 0 00.918.969c.385.215.793.323 1.224.323.442 0 .85-.114 1.224-.34.385-.227.69-.55.918-.97.238-.419.357-.917.357-1.495zm6.54-7.837v12.58h-2.38v-12.58h2.38zm11.106 7.667c0 .34-.022.646-.068.918h-6.885c.057.68.295 1.212.714 1.598.42.385.935.578 1.547.578.884 0 1.513-.38 1.887-1.14h2.567a4.334 4.334 0 01-1.564 2.245c-.77.578-1.717.867-2.839.867-.906 0-1.722-.199-2.448-.595a4.38 4.38 0 01-1.683-1.717c-.396-.737-.595-1.587-.595-2.55 0-.975.199-1.83.595-2.567a4.151 4.151 0 011.666-1.7c.714-.397 1.536-.595 2.465-.595.896 0 1.695.192 2.397.578a3.987 3.987 0 011.65 1.649c.396.702.594 1.513.594 2.43zm-2.465-.68c-.01-.612-.232-1.1-.663-1.462-.43-.374-.957-.561-1.58-.561-.59 0-1.089.181-1.497.544-.396.351-.64.844-.73 1.479h4.47z" fill="#fff"/></svg>
